X:9660
T:Lisheen Jig, The
M:6/8
L:1/8
R:jig
D:Na Drsa: The Wild Music of the Gael
Z:Devin McCabe
K:G
efg edB|c2A BGE|~G3 BdB|BAG ABd|
!efg edB|c2A BGE|~G3 BdB|1AGF GBd:|2AGF G2D|
!:GBd ~g3|agf g2e|~f2d edB|c2A BGE|
!GBd ~g3|agf g2e|~f2d edB|1cAF G2D:|2cAF GBd||
